newicons/fboard.svg

<svg xmlns="http://www.w3.org/2000/svg" viewBox="0 0 48 48"><defs><style>.a{fill:none;stroke:#fff;stroke-linecap:round;stroke-linejoin:round;}</style></defs><path class="a" d="M13.1676,18.573H7.64a2.0779,2.0779,0,0,0-2.0779,2.0778V40.4222A2.0779,2.0779,0,0,0,7.64,42.5H40.36a2.0779,2.0779,0,0,0,2.0779-2.0778V20.6508A2.0779,2.0779,0,0,0,40.36,18.573h-5.284"/><rect class="a" x="14.0996" y="35.7634" width="20.0445" height="3.327" rx="0.4208"/><rect class="a" x="10.7333" y="29.78" width="3.3663" height="3.3663" rx="0.4208"/><rect class="a" x="16.586" y="29.78" width="3.3663" height="3.3663" rx="0.4208"/><path class="a" d="M25.8051,30.3553v2.37a.4208.4208,0,0,1-.4208.4208H22.86a.4207.4207,0,0,1-.4207-.4208v-2.37"/><rect class="a" x="28.2915" y="29.78" width="3.3663" height="3.3663" rx="0.4208"/><rect class="a" x="34.1442" y="29.78" width="3.3663" height="3.3663" rx="0.4208"/><rect class="a" x="10.7333" y="23.7965" width="3.3663" height="3.3663" rx="0.4208"/><path class="a" d="M18.2755,27.1628H17.0068a.4208.4208,0,0,1-.4208-.4208v-.8747"/><path class="a" d="M31.6578,25.8673v.8747a.4208.4208,0,0,1-.4208.4208H29.9683"/><rect class="a" x="34.1442" y="23.7965" width="3.3663" height="3.3663" rx="0.4208"/><path class="a" d="M34.2525,23.8775,24.1219,31.646,13.9913,23.8775a2.1036,2.1036,0,0,1-.8237-1.67V7.1832A1.6832,1.6832,0,0,1,14.8508,5.5H33.393a1.6832,1.6832,0,0,1,1.6832,1.6832V22.208A2.1036,2.1036,0,0,1,34.2525,23.8775Z"/><line class="a" x1="21.75" y1="9.9894" x2="28.25" y2="9.9894"/><line class="a" x1="21.75" y1="16.4894" x2="25.975" y2="16.4894"/><line class="a" x1="21.75" y1="9.9894" x2="21.75" y2="22.9894"/></svg>

<svg xmlns="http://www.w3.org/2000/svg" id="svg18" version="1.1" viewBox="0 0 48 48"><defs id="defs4"><style id="style2">.c{fill:none;stroke:#000;stroke-linecap:round;stroke-linejoin:round}</style></defs><g id="a" style="stroke:#fff;stroke-width:1.87439;stroke-linecap:round;stroke-linejoin:round;stroke-miterlimit:4;stroke-dasharray:none;stroke-opacity:1" transform="translate(12.321 5.269) scale(.5335)"><g id="g12" style="stroke:#fff;stroke-width:1.87439;stroke-linecap:round;stroke-linejoin:round;stroke-miterlimit:4;stroke-dasharray:none;stroke-opacity:1"><path id="line6" d="M17.938 11.85h12.124" class="c" style="stroke:#fff;stroke-width:1.87439;stroke-linecap:round;stroke-linejoin:round;stroke-miterlimit:4;stroke-dasharray:none;stroke-opacity:1"/><path id="line8" d="M17.938 24h7.905" class="c" style="stroke:#fff;stroke-width:1.87439;stroke-linecap:round;stroke-linejoin:round;stroke-miterlimit:4;stroke-dasharray:none;stroke-opacity:1"/><path id="line10" d="M17.938 11.85v24.3" class="c" style="stroke:#fff;stroke-width:1.87439;stroke-linecap:round;stroke-linejoin:round;stroke-miterlimit:4;stroke-dasharray:none;stroke-opacity:1"/></g></g><path id="path6" d="M13.168 18.573H7.64a2.078 2.078 0 0 0-2.078 2.078v19.771A2.078 2.078 0 0 0 7.64 42.5h32.72a2.078 2.078 0 0 0 2.078-2.078V20.651a2.078 2.078 0 0 0-2.078-2.078h-5.284" class="a" style="fill:none;stroke:#fff;stroke-linecap:round;stroke-linejoin:round;stroke-width:1;stroke-miterlimit:4;stroke-dasharray:none;stroke-opacity:1"/><rect id="rect8" width="20.044" height="3.327" x="14.1" y="35.763" class="a" rx=".421" style="fill:none;stroke:#fff;stroke-linecap:round;stroke-linejoin:round;stroke-width:1;stroke-miterlimit:4;stroke-dasharray:none;stroke-opacity:1"/><rect id="rect10" width="3.366" height="3.366" x="10.733" y="29.78" class="a" rx=".421" style="fill:none;stroke:#fff;stroke-linecap:round;stroke-linejoin:round;stroke-width:1;stroke-miterlimit:4;stroke-dasharray:none;stroke-opacity:1"/><rect id="rect12" width="3.366" height="3.366" x="16.586" y="29.78" class="a" rx=".421" style="fill:none;stroke:#fff;stroke-linecap:round;stroke-linejoin:round;stroke-width:1;stroke-miterlimit:4;stroke-dasharray:none;stroke-opacity:1"/><path id="path14" d="M25.805 30.355v2.37a.42.42 0 0 1-.42.421H22.86a.42.42 0 0 1-.42-.42v-2.37" class="a" style="fill:none;stroke:#fff;stroke-linecap:round;stroke-linejoin:round;stroke-width:1;stroke-miterlimit:4;stroke-dasharray:none;stroke-opacity:1"/><rect id="rect16" width="3.366" height="3.366" x="28.291" y="29.78" class="a" rx=".421" style="fill:none;stroke:#fff;stroke-linecap:round;stroke-linejoin:round;stroke-width:1;stroke-miterlimit:4;stroke-dasharray:none;stroke-opacity:1"/><rect id="rect18" width="3.366" height="3.366" x="34.144" y="29.78" class="a" rx=".421" style="fill:none;stroke:#fff;stroke-linecap:round;stroke-linejoin:round;stroke-width:1;stroke-miterlimit:4;stroke-dasharray:none;stroke-opacity:1"/><rect id="rect20" width="3.366" height="3.366" x="10.733" y="23.796" class="a" rx=".421" style="fill:none;stroke:#fff;stroke-linecap:round;stroke-linejoin:round;stroke-width:1;stroke-miterlimit:4;stroke-dasharray:none;stroke-opacity:1"/><path id="path22" d="M18.275 27.163h-1.268a.42.42 0 0 1-.421-.421v-.875" class="a" style="fill:none;stroke:#fff;stroke-linecap:round;stroke-linejoin:round;stroke-width:1;stroke-miterlimit:4;stroke-dasharray:none;stroke-opacity:1"/><path id="path24" d="M31.658 25.867v.875a.42.42 0 0 1-.421.42h-1.269" class="a" style="fill:none;stroke:#fff;stroke-linecap:round;stroke-linejoin:round;stroke-width:1;stroke-miterlimit:4;stroke-dasharray:none;stroke-opacity:1"/><rect id="rect26" width="3.366" height="3.366" x="34.144" y="23.796" class="a" rx=".421" style="fill:none;stroke:#fff;stroke-linecap:round;stroke-linejoin:round;stroke-width:1;stroke-miterlimit:4;stroke-dasharray:none;stroke-opacity:1"/><path id="path28" d="m34.252 23.878-10.13 7.768-10.13-7.768a2.104 2.104 0 0 1-.825-1.67V7.183A1.683 1.683 0 0 1 14.851 5.5h18.542a1.683 1.683 0 0 1 1.683 1.683v15.025a2.104 2.104 0 0 1-.824 1.67z" class="a" style="fill:none;stroke:#fff;stroke-linecap:round;stroke-linejoin:round;stroke-width:1;stroke-miterlimit:4;stroke-dasharray:none;stroke-opacity:1"/></svg>
